icons/type-icons/icons/image-gif.svg

<?xml version="1.0" encoding="UTF-8" standalone="no"?>

<!-- Created with Inkscape (http://www.inkscape.org/) -->
<svg width="22" version="1.1" xmlns="http://www.w3.org/2000/svg" height="22" xmlns:inkscape="http://www.inkscape.org/namespaces/inkscape">
 <defs id="defs3871"/>
 <metadata id="metadata3874"/>
 <g inkscape:label="Capa 1" inkscape:groupmode="layer" id="layer1" transform="matrix(1 0 0 1 -326 -534.3622)">
  <path style="fill:#32cab4;stroke-width:2" id="rect5669" d="M 3 3 L 3 15 L 1 17 L 3 17 L 3 19 L 19 19 L 19 17 L 21 17 L 19 14.714844 L 19 3 L 3 3 z M 4 4 L 9 4 L 10 4 L 11 4 L 14.539062 4 L 18 4 L 18 13.572266 L 14 9 L 10 13 L 9.5 13.5 L 9 13 L 7 11 L 4 14 L 4 4 z M 7 5 A 2 2 0 0 0 5 7 A 2 2 0 0 0 7 9 A 2 2 0 0 0 9 7 A 2 2 0 0 0 7 5 z M 13.951172 10.462891 L 19 16 L 12 16 L 11 15 L 10.207031 14.207031 L 11 13.416016 L 11 13.414062 L 13.951172 10.462891 z M 7 12.414062 L 9 14.414062 L 9 14.416016 L 10.583984 16 L 9 16 L 3.4140625 16 L 7 12.414062 z M 4 17 L 9 17 L 11 17 L 18 17 L 18 18 L 4 18 L 4 17 z " transform="matrix(1 0 0 1 326 534.3622)"/>
 </g>
</svg>

<?xml version="1.0" encoding="UTF-8"?><svg width="22" height="22" version="1.1" xmlns="http://www.w3.org/2000/svg">
 <g id="layer1" transform="translate(-326 -534.36)">
  <path id="rect5669" transform="translate(326 534.36)" d="m3 3v12l-2 2h2v2h16v-2h2l-2-2.2852v-11.715h-16zm1 1h14v9.5723l-4-4.5723-4.5 4.5-2.5-2.5-3 3v-10zm3 1a2 2 0 0 0-2 2 2 2 0 0 0 2 2 2 2 0 0 0 2-2 2 2 0 0 0-2-2zm6.9512 5.4629 5.0488 5.5371h-7l-1.793-1.793 0.79297-0.79102v-0.001954l2.9512-2.9512zm-6.9512 1.9512 2 2v0.001954l1.584 1.584h-7.1699l3.5859-3.5859zm-3 4.5859h14v1h-14v-1z" fill="#32cab4" stroke-width="2"/>
 </g>
</svg>
